src/actions/32/mail-thread-watch.svg

<svg xmlns="http://www.w3.org/2000/svg" viewBox="0 0 32 32">
  <defs id="defs3051">
    <style type="text/css" id="current-color-scheme">
      .ColorScheme-Text {
        color:#2e3440;
      }
      </style>
  </defs>
 <path 
     style="fill:currentColor;fill-opacity:1;stroke:none" 
     d="M 2 5 L 2 24.683594 L 2 27 L 19 27 L 19 26 L 3 26 L 3 25.111328 L 3.4296875 24.683594 L 12.785156 15.541016 L 16 18.683594 L 28.976562 6 L 29 6 L 29 16 L 30 16 L 30 5 L 2 5 z M 3 6 L 3.0234375 6 L 12.070312 14.841797 L 3 23.707031 L 3 6 z M 4.453125 6 L 27.546875 6 L 16 17.285156 L 4.453125 6 z M 24 18 A 8.9999925 9.0000023 0 0 0 16.123047 22.667969 C 16.251996 23.031718 16.480486 23.344572 16.779297 23.576172 A 7.9999935 8.0000021 0 0 1 24 19 A 3.9999996 4.0000004 0 0 0 20 23 A 3.9999996 4.0000004 0 0 0 24 27 A 3.9999996 4.0000004 0 0 0 28 23 A 3.9999996 4.0000004 0 0 0 24.349609 19.017578 A 7.9999935 8.0000021 0 0 1 31.220703 23.576172 C 31.522218 23.342472 31.752612 23.026077 31.880859 22.658203 A 8.9999925 9.0000023 0 0 0 24 18 z M 24 20 A 2.9999996 3.0000002 0 0 1 27 23 A 2.9999996 3.0000002 0 0 1 24 26 A 2.9999996 3.0000002 0 0 1 21 23 A 2.9999996 3.0000002 0 0 1 24 20 z M 24 21 A 1.9999999 2.0000003 0 0 0 22 23 A 1.9999999 2.0000003 0 0 0 24 25 A 1.9999999 2.0000003 0 0 0 26 23 A 1.9999999 2.0000003 0 0 0 25.910156 22.412109 A 0.9999999 1 0 0 1 25 23 A 0.9999999 1 0 0 1 24 22 A 0.9999999 1 0 0 1 24.589844 21.089844 A 1.9999999 2.0000003 0 0 0 24 21 z "
     class="ColorScheme-Text"
     />
</svg>

<svg viewBox="0 0 32 32" xmlns="http://www.w3.org/2000/svg">
 <defs>
  <style type="text/css">.ColorScheme-Text {
        color:#2e3440;
      }</style>
 </defs>
 <path class="ColorScheme-Text" d="m2 5v19.684 2.3164h17v-1h-16v-0.88867l0.42969-0.42773 9.3555-9.1426 3.2148 3.1426 12.977-12.684h0.023438v10h1v-11h-28zm1 1h0.023438l9.0469 8.8418-9.0703 8.8652v-17.707zm1.4531 0h23.094l-11.547 11.285-11.547-11.285zm19.547 12a9 9 0 0 0-7.877 4.668c0.12895 0.36375 0.35744 0.6766 0.65625 0.9082a8 8 0 0 1 7.2207-4.5762 4 4 0 0 0-4 4 4 4 0 0 0 4 4 4 4 0 0 0 4-4 4 4 0 0 0-3.6504-3.9824 8 8 0 0 1 6.8711 4.5586c0.30152-0.2337 0.53191-0.5501 0.66016-0.91797a9 9 0 0 0-7.8809-4.6582zm0 2a3 3 0 0 1 3 3 3 3 0 0 1-3 3 3 3 0 0 1-3-3 3 3 0 0 1 3-3zm0 1a2 2 0 0 0-2 2 2 2 0 0 0 2 2 2 2 0 0 0 2-2 2 2 0 0 0-0.089844-0.58789 1 1 0 0 1-0.91016 0.58789 1 1 0 0 1-1-1 1 1 0 0 1 0.58984-0.91016 2 2 0 0 0-0.58984-0.089844z" fill="currentColor"/>
</svg>
